symbolic/24x24/apps/morpheus.svg

<svg xmlns="http://www.w3.org/2000/svg" width="24" height="24" version="1">
 <rect style="fill:#e4e4e4" width="19.7" height="19.7" x="2.15" y="2.15" rx=".985" ry=".985"/>
 <rect style="opacity:0.2" width="20" height="20" x="2" y="2.5" rx="1" ry="1"/>
 <path style="fill:#f73a3a" d="M 3,2 C 2.446,2 2,2.446 2,3 V 14.987305 L 7,14 8,7 5.060547,2 Z"/>
 <path style="fill:#e4e4e4" d="M 5.060547,2 8,7 h 8.5 L 21.044922,2.0048828 C 21.029696,2.0042008 21.0154,2 21,2 Z"/>
 <path style="fill:#357cca" d="M 18,14.5 11,17 10.5,22 H 13.396485 21 c 0.554,0 1,-0.446 1,-1 V 19.382812 C 21.98973,19.329373 21.9753,19.272926 21.973635,19.225586 21.974242,19.171792 21.990749,19.11702 22,19.0625 v -2.834961 z"/>
 <path style="fill:#cccccc" d="M 21.044922,2.0048828 16.5,7 18,14.5 22,16.227539 V 3 C 22,2.4614001 21.57743,2.0287354 21.044922,2.0048828 Z"/>
 <path style="opacity:0.2" d="M 8,8 7.133711,14.346941 11,17.5 18,15 16.5,8 Z"/>
 <path style="fill:#fece00" d="m 8,7 -1,7 4,3 7,-2.5 L 16.5,7 Z"/>
 <path style="opacity:0.2;fill:#ffffff" d="M 3,2 C 2.446,2 2,2.446 2,3 v 0.5 c 0,-0.554 0.446,-1 1,-1 h 18 c 0.554,0 1,0.446 1,1 V 3 C 22,2.446 21.554,2 21,2 Z"/>
 <path style="fill:#e4e4e4" d="M 7,14 2,14.987305 V 21 c 0,0.554 0.446,1 1,1 H 9.0082095 10.5 L 11,17 Z"/>
 <path style="opacity:0.1" d="M 5.0605469 2.5 L 8 7.5 L 16.5 7.5 L 21.044922 2.5058594 C 21.029696 2.5051774 21.0154 2.5 21 2.5 L 20.595703 2.5 L 16.5 7 L 8 7 L 5.3554688 2.5 L 5.0605469 2.5 z"/>
 <path style="opacity:0.2" d="M 16.582031 7.4101562 L 16.5 7.5 L 18 15 L 22 16.728516 L 22 16.228516 L 18 14.5 L 16.582031 7.4101562 z"/>
</svg>

<svg xmlns="http://www.w3.org/2000/svg" width="24" height="24" version="1"><rect style="fill:#e4e4e4" width="19.7" height="19.7" x="2.15" y="2.15" rx=".985" ry=".985"/><rect style="opacity:.2" width="20" height="20" x="2" y="2.5" rx="1" ry="1"/><path style="fill:#f73a3a" d="M3 2c-.554 0-1 .446-1 1v11.987L7 14l1-7-2.94-5z"/><path style="fill:#e4e4e4" d="M5.06 2 8 7h8.5l4.545-4.995C21.03 2.005 21.015 2 21 2z"/><path style="fill:#357cca" d="M18 14.5 11 17l-.5 5H21c.554 0 1-.446 1-1v-1.617c-.01-.054-.025-.11-.026-.157 0-.054.017-.109.026-.163v-2.835z"/><path style="fill:#ccc" d="M21.045 2.005 16.5 7l1.5 7.5 4 1.728V3a.995.995 0 0 0-.955-.995z"/><path style="opacity:.2" d="m8 8-.866 6.347L11 17.5l7-2.5-1.5-7z"/><path style="fill:#fece00" d="m8 7-1 7 4 3 7-2.5L16.5 7z"/><path style="opacity:.2;fill:#fff" d="M3 2c-.554 0-1 .446-1 1v.5c0-.554.446-1 1-1h18c.554 0 1 .446 1 1V3c0-.554-.446-1-1-1z"/><path style="fill:#e4e4e4" d="m7 14-5 .987V21c0 .554.446 1 1 1h7.5l.5-5z"/><path style="opacity:.1" d="M5.06 2.5 8 7.5h8.5l4.545-4.994c-.015 0-.03-.006-.045-.006h-.404L16.5 7H8L5.355 2.5h-.294z"/><path style="opacity:.2" d="m16.582 7.41-.082.09L18 15l4 1.729v-.5L18 14.5l-1.418-7.09z"/></svg>
